icons/general-calendar-2.svg

<svg fill="none" viewBox="0 0 24 24"><path stroke="currentColor" stroke-linecap="round" stroke-linejoin="round" stroke-width="2" d="M6.5 7.6h11.4m-11.9-6.2v2m0 0h12m-12 0a3.6 3.6 0 0 0-3.6 3.6v12a3.6 3.6 0 0 0 3.6 3.6h12a3.6 3.6 0 0 0 3.6-3.6v-12a3.6 3.6 0 0 0-3.6-3.6m0-2v2m-8.4 15v-7.2l-2.4 1.8m9 5.4v-7.2l-2.4 1.8"/></svg>

<svg fill="none" viewBox="0 0 24 24"><path stroke="currentColor" stroke-linecap="round" stroke-linejoin="round" stroke-width="2" d="M6.5 7.6H18M6 1.4v2m0 0h12m-12 0A3.6 3.6 0 0 0 2.4 7v12A3.6 3.6 0 0 0 6 22.6h12a3.6 3.6 0 0 0 3.6-3.6V7A3.6 3.6 0 0 0 18 3.4m0-2v2m-8.4 15v-7.2L7.2 13m9 5.4v-7.2L13.8 13"/></svg>
